X:1465
T:Dash to Portobello, The
T:Port Gael-Linn
T:Sean Ryan's Reel
O:england
C:Sean Ryan
R:reel
M:C|
K:Edor
BEED EDB,C|D2FE DA,~A,2|B,EED EFGA|(3Bcd eB dBAd|
BEED EDB,C|DEFE DA,~A,2|B,EED EFGA|BGAF GEE2:|
|:g2eg bgeg|f2df afdf|g2eg bgeg|fedc Be~e2|
~g3a bgag|fd~d2 Adfa|~g3a agag|1 fedc Bdef:|2 fedc Bded||
"variations"
|:BE~E2 EDB,A,|D2FE DA,~A,2|B,EED EFGA|(3Bcd eB dBA=c|
BEED EDB,A,|D2FE DA,~A,2|B,EED EFGA|(3Bcd AF GEE2:|
|:g2eg bgeg|fd~d2 Adfa|g2eg bgeg|fgaf geef|
~g3a bgeg|f2df afdf|gfga agaf|1 gfed (3Bcd ef:|2 gfed Bded||


